X: 10702
Q: "Andante Grazioso"
M: 3/4
L: 1/16
K: Bb
[|\
d4 d4 d4 | f6 F2 F4 | d4 d2f2 (fe) (cA) | B6 G2 F4 |\
f4 (e2d2) (c2B2) | B2(3(cBA B2)c2 H(d4{dc)BA}({c2B2G2})| (FB3) (GB3) (Ac3) | B8 |]


